X:1
T: The Duchess of Buccleugh's Favourite
C:Niel Gow
R:Strathspey
Q: 128
K:Bb
M:4/4
L:1/16
|:DE|F3G GFED F2D2 D2B2|F3G B2D2 F4 F2G2|F3G GFED B2F2 d3c|B3G F3D C4 C2DE|
F3G F2D2 F2D2 D2B2|F3G B2D2 F4 F2de|f3d e3c d3B c3A|B2G2 F2D2 C4 C2g2|
fd3 d3g fd3 d3g|f2d2 b3B f4 f2g2|fd3 d3g f3d dfga|b3g f2d2 d2c2 c2g2|
fd3 d3g fd3 d3g|gfed b3d f4 f2ga|bagf gfed edcB dcBA|cBAG GFED C4C2:|
